X: 576
T: Forked Deer
C:Traditional
B: jims roots
M:4/4
L:1/8
Q: 1/4=100
K:D
V:1 
%Q:478
Ac |: "D"defg agfa | "G"gfeg "A"fedc | "D"defg agfa |
"G"gfed "A"cBAc | "D"defg agfa | "G"gfeg "A"fedc |
"D"dAFD "G"GBAG | [1 "A"AF (3EFE "D"D2 Ac:|[2 "A"AF (3EFE "D"D4||
|: "A"{^G}[A2A2][A2A2] [A2c2] [Ac][Ac] | BcBA [F2A2]E2 | {^G}[A2A2][A2A2] [A2c2] Bc | "D"dBAF (3EFE D2 |
"A"{^G}[A2A2][A2A2] [A2c2] [Ac][Ac] | BcBA [F2A2]E2 | "D"dAFD "G"GBAG | "A"AF (3EFE "D"D4:|
% abcbook-tune_id 6298c25dfbe6093b4f5dde29


% abcbook-boost 0
% abcbook-tablature 
% abcbook-transpose 
% abcbook-lastupdated 1654178398077
% abcbook-soundfonts 
% abcbook-repeats 1
% arr Jim Kendrick

